img/tab-icons/progector-active.svg

<svg width="24" height="24" viewBox="0 0 24 24" fill="none" xmlns="http://www.w3.org/2000/svg">
<path d="M11.82 6.9C14.68 6.28 17.58 6.19 20.45 6.66C18.68 3.86 15.56 2 12 2C8.89002 2 6.11002 3.42 4.27002 5.65C4.71002 6.95 5.27002 8.19 5.94002 9.37C6.32002 10.05 7.29002 10.02 7.68002 9.35C8.53002 7.92 10.06 6.96 11.82 6.9Z" fill="#41FFB4"/>
<path d="M7.72002 14.7199C5.72002 12.5799 4.16002 10.1399 3.09002 7.43994C1.59002 10.3999 1.60002 14.0299 3.43002 17.0799C5.03002 19.7499 7.67002 21.4099 10.53 21.8399C11.42 20.7899 12.2 19.6699 12.87 18.4999C13.26 17.8199 12.73 17.0099 11.95 17.0099C10.28 17.0199 8.67002 16.1999 7.72002 14.7199Z" fill="#41FFB4"/>
<path d="M21.3402 8.41979C19.9702 8.12979 18.5802 7.96979 17.2002 7.94979C16.4102 7.93979 15.9602 8.79979 16.3502 9.48979C16.7502 10.1998 16.9802 11.0198 16.9802 11.8898C16.9802 12.7298 16.7602 13.5598 16.3502 14.2998C15.4102 17.1798 14.0102 19.7398 12.1602 21.9998C17.6102 21.9098 22.0002 17.4698 22.0002 11.9998C22.0002 10.7398 21.7702 9.52979 21.3402 8.41979Z" fill="#41FFB4"/>
</svg>

<svg width="24" height="24" fill="none" xmlns="http://www.w3.org/2000/svg"><path d="M11.82 6.9a23 23 0 0 1 8.63-.24A9.98 9.98 0 0 0 12 2C8.89 2 6.11 3.42 4.27 5.65c.44 1.3 1 2.54 1.67 3.72.38.68 1.35.65 1.74-.02a5.004 5.004 0 0 1 4.14-2.45zM7.72 14.72c-2-2.14-3.56-4.58-4.63-7.28a9.95 9.95 0 0 0 .34 9.64 9.984 9.984 0 0 0 7.1 4.76c.89-1.05 1.67-2.17 2.34-3.34.39-.68-.14-1.49-.92-1.49-1.67.01-3.28-.81-4.23-2.29zM21.34 8.42a21.53 21.53 0 0 0-4.14-.47c-.79-.01-1.24.85-.85 1.54.4.71.63 1.53.63 2.4 0 .84-.22 1.67-.63 2.41-.94 2.88-2.34 5.44-4.19 7.7 5.45-.09 9.84-4.53 9.84-10 0-1.26-.23-2.47-.66-3.58z" fill="#41FFB4"/></svg>
